X:1
T:Title
%%score { ( 1 3 ) | 2 }
L:1/8
M:4/4
K:D
V:1 treble nm="Grand Piano"
V:3 treble 
V:2 bass 
V:1
 z4 z2[Q:1/4=100] F>E | D2 d2 c2 B2 | A4 F2 D>E | F2 [DF]2 [DF]2 [DE]2 | [CE]6 F>E | D2 d2 c2 B2 | %6
 A4 F2 B>B | A3 F F2 [CE]2 |[M:3/4] D6 |[M:1/4] d>c |[M:4/4] B6 z2 | A4 F2 z2 | G2 A2 z4 | %13
 d->[Fd-] [Fd-]>[Fd] [FA]2 d>c | B6 z2 | A4 F2 z2 | A3 F F2 [CE]2 | D6 z2 |] %18
V:2
 z4 z2 [D,A,D]>[D,G,D] | [D,F,]2 [D,F,D]2 [D,A,D]2 [D,G,D]2 | [D,F,D]4 [D,A,D]2 [F,A,]>[E,A,D] | %3
 [D,A,D]2 [B,,B,]2 [D,B,]2 [E,^G,]2 | [A,,A,]6 [D,A,D]>[D,G,D] | %5
 [D,F,]2 [D,F,D]2 [D,A,D]2 [D,G,D]2 | [D,F,D]4 [D,A,D]2 [G,D]>[G,B,D] | %7
 [D,D]3 [D,A,D] [A,D]2 [A,,G,]2 |[M:3/4] [D,F,]6 |[M:1/4] z2 | %10
[M:4/4][K:treble] [G,DG]2 [G,D]2 [G,D]2 z2 | [D,D]2 [D,D]2 [D,A,D][D,A,] z2 | %12
 [A,C]>A, [A,CE]>[A,C] [A,EG]2 z2 | [D,A,]>[D,A,] [D,A,]>[D,A,] [D,D]2 z2 | %14
 [G,DG]2 [G,D]2 [G,D][G,B,] z2 | [D,D]2 [D,D]2 [D,D][D,A,] [G,D]>[G,B,D] | %16
 [F,D]3 [D,D] [A,D]2 [A,,G,]2 | [D,F,]6 z2 |] %18
V:3
 x8 | x8 | x8 | x8 | x8 | x8 | x8 | x8 |[M:3/4] x6 |[M:1/4] x2 |[M:4/4] z2 G2 GG c>B | %11
 F2 F2 z D E>F | z z/ C/ z z/ E/ B2 c2 | F2 z2 z4 | z2 G2 GG c>B | F2 F2 z D B>B | x8 | x8 |] %18

